src/components/Sprite/svg/crying.svg

<?xml version="1.0" encoding="UTF-8" standalone="no"?>
<svg
   xmlns:dc="http://purl.org/dc/elements/1.1/"
   xmlns:cc="http://creativecommons.org/ns#"
   xmlns:rdf="http://www.w3.org/1999/02/22-rdf-syntax-ns#"
   xmlns:svg="http://www.w3.org/2000/svg"
   xmlns="http://www.w3.org/2000/svg"
   xmlns:sodipodi="http://sodipodi.sourceforge.net/DTD/sodipodi-0.dtd"
   xmlns:inkscape="http://www.inkscape.org/namespaces/inkscape"
   width="128"
   height="128"
   viewBox="0 0 128 128"
   version="1.1"
   id="svg8"
   inkscape:version="1.0 (4035a4f, 2020-05-01)"
   sodipodi:docname="crying.svg">
  <defs
     id="defs2" />
  <sodipodi:namedview
     id="base"
     pagecolor="#ffffff"
     bordercolor="#666666"
     borderopacity="1.0"
     inkscape:pageopacity="0.0"
     inkscape:pageshadow="2"
     inkscape:zoom="12.321585"
     inkscape:cx="52.898417"
     inkscape:cy="99.428611"
     inkscape:document-units="px"
     inkscape:current-layer="layer1"
     inkscape:document-rotation="0"
     showgrid="true"
     units="px"
     inkscape:window-width="2560"
     inkscape:window-height="1331"
     inkscape:window-x="0"
     inkscape:window-y="25"
     inkscape:window-maximized="0"
     inkscape:snap-bbox="true"
     inkscape:bbox-paths="true"
     inkscape:bbox-nodes="true">
    <inkscape:grid
       type="xygrid"
       id="grid10"
       empspacing="4" />
    <inkscape:grid
       type="xygrid"
       id="grid12"
       spacingx="8"
       spacingy="8"
       empspacing="2" />
  </sodipodi:namedview>
  <metadata
     id="metadata5">
    <rdf:RDF>
      <cc:Work
         rdf:about="">
        <dc:format>image/svg+xml</dc:format>
        <dc:type
           rdf:resource="http://purl.org/dc/dcmitype/StillImage" />
        <dc:title />
      </cc:Work>
    </rdf:RDF>
  </metadata>
  <g
     inkscape:label="Layer 1"
     inkscape:groupmode="layer"
     id="layer1">
    <path
       d="M 120,64 A 56,56 0 0 1 64,120 56,56 0 0 1 8,64 56,56 0 0 1 64,8 56,56 0 0 1 120,64"
       style="fill:#ffc107;stroke-width:8;stroke-linecap:round;stroke-linejoin:round"
       id="path16" />
    <path
       id="circle883"
       style="fill:#37474f;stroke-width:17.7505;stroke-linecap:round;stroke-linejoin:round"
       d="M 64,68 A 16,19.692307 0 0 0 48,87.692307 16,19.692307 0 0 0 51.509766,100 16,19.692307 0 0 1 64,92.615385 16,19.692307 0 0 1 76.490234,100 16,19.692307 0 0 0 80,87.692307 16,19.692307 0 0 0 64,68 Z" />
    <path
       id="path2588"
       d="M 44 41 C 40.111111 41 36.114684 42.229066 33.171875 45.171875 A 4 4 0 0 0 33.171875 50.828125 A 4 4 0 0 0 38.828125 50.828125 C 39.885316 49.770934 41.888889 49 44 49 C 46.111111 49 48.114684 49.770934 49.171875 50.828125 A 4 4 0 0 0 54.828125 50.828125 A 4 4 0 0 0 54.828125 45.171875 C 51.885316 42.229066 47.888889 41 44 41 z "
       style="color:#000000;font-style:normal;font-variant:normal;font-weight:normal;font-stretch:normal;font-size:medium;line-height:normal;font-family:sans-serif;font-variant-ligatures:normal;font-variant-position:normal;font-variant-caps:normal;font-variant-numeric:normal;font-variant-alternates:normal;font-variant-east-asian:normal;font-feature-settings:normal;font-variation-settings:normal;text-indent:0;text-align:start;text-decoration:none;text-decoration-line:none;text-decoration-style:solid;text-decoration-color:#000000;letter-spacing:normal;word-spacing:normal;text-transform:none;writing-mode:lr-tb;direction:ltr;text-orientation:mixed;dominant-baseline:auto;baseline-shift:baseline;text-anchor:start;white-space:normal;shape-padding:0;shape-margin:0;inline-size:0;clip-rule:nonzero;display:inline;overflow:visible;visibility:visible;isolation:auto;mix-blend-mode:normal;color-interpolation:sRGB;color-interpolation-filters:linearRGB;solid-color:#000000;solid-opacity:1;vector-effect:none;fill:#37474f;fill-opacity:1;fill-rule:nonzero;stroke:none;stroke-width:8;stroke-linecap:round;stroke-linejoin:round;stroke-miterlimit:4;stroke-dasharray:none;stroke-dashoffset:0;stroke-opacity:1;color-rendering:auto;image-rendering:auto;shape-rendering:auto;text-rendering:auto;enable-background:accumulate;stop-color:#000000;stop-opacity:1;opacity:1" />
    <path
       id="path2592"
       d="M 84 41 C 80.111111 41 76.114684 42.229066 73.171875 45.171875 A 4 4 0 0 0 73.171875 50.828125 A 4 4 0 0 0 78.828125 50.828125 C 79.885316 49.770934 81.888889 49 84 49 C 86.111111 49 88.114684 49.770934 89.171875 50.828125 A 4 4 0 0 0 94.828125 50.828125 A 4 4 0 0 0 94.828125 45.171875 C 91.885316 42.229066 87.888889 41 84 41 z "
       style="color:#000000;font-style:normal;font-variant:normal;font-weight:normal;font-stretch:normal;font-size:medium;line-height:normal;font-family:sans-serif;font-variant-ligatures:normal;font-variant-position:normal;font-variant-caps:normal;font-variant-numeric:normal;font-variant-alternates:normal;font-variant-east-asian:normal;font-feature-settings:normal;font-variation-settings:normal;text-indent:0;text-align:start;text-decoration:none;text-decoration-line:none;text-decoration-style:solid;text-decoration-color:#000000;letter-spacing:normal;word-spacing:normal;text-transform:none;writing-mode:lr-tb;direction:ltr;text-orientation:mixed;dominant-baseline:auto;baseline-shift:baseline;text-anchor:start;white-space:normal;shape-padding:0;shape-margin:0;inline-size:0;clip-rule:nonzero;display:inline;overflow:visible;visibility:visible;isolation:auto;mix-blend-mode:normal;color-interpolation:sRGB;color-interpolation-filters:linearRGB;solid-color:#000000;solid-opacity:1;vector-effect:none;fill:#37474f;fill-opacity:1;fill-rule:nonzero;stroke:none;stroke-width:8;stroke-linecap:round;stroke-linejoin:round;stroke-miterlimit:4;stroke-dasharray:none;stroke-dashoffset:0;stroke-opacity:1;color-rendering:auto;image-rendering:auto;shape-rendering:auto;text-rendering:auto;enable-background:accumulate;stop-color:#000000;stop-opacity:1;opacity:1" />
    <path
       d="M 44 48 C 41.784 48 40 49.784 40 52 L 40 104.14062 A 24 10 0 0 0 36 104 A 24 10 0 0 0 12 114 A 24 10 0 0 0 36 124 A 24 10 0 0 0 42.214844 123.6582 A 24 9.999999 0 0 0 62 128 A 24 9.999999 0 0 0 82.517578 123.18555 A 24 10 0 0 0 92 124 A 24 10 0 0 0 116 114 A 24 10 0 0 0 92 104 A 24 10 0 0 0 88 104.14062 L 88 52 C 88 49.784 86.216 48 84 48 C 81.784 48 80 49.784 80 52 L 80 105.33984 A 24 10 0 0 0 71.482422 108.81445 A 24 9.999999 0 0 0 62 108 A 24 9.999999 0 0 0 55.785156 108.3418 A 24 10 0 0 0 48 105.33984 L 48 52 C 48 49.784 46.216 48 44 48 z "
       style="fill:#29b6f6;stroke:none;stroke-width:9.79793;stroke-linecap:round;stroke-linejoin:round;stroke-miterlimit:4;stroke-dasharray:none"
       id="path916" />
  </g>
</svg>

<svg xmlns="http://www.w3.org/2000/svg" viewBox="0 0 128 128">
    <path fill="#ffc107" d="M120 64a56 56 0 01-56 56A56 56 0 018 64 56 56 0 0164 8a56 56 0 0156 56"/>
    <path fill="#37474f" d="M64 68a16 19.692 0 00-16 19.692A16 19.692 0 0051.51 100 16 19.692 0 0164 92.615 16 19.692 0 0176.49 100 16 19.692 0 0080 87.692 16 19.692 0 0064 68zM44 41c-3.889 0-7.885 1.23-10.828 4.172a4 4 0 000 5.656 4 4 0 005.656 0C39.885 49.771 41.888 49 44 49c2.111 0 4.115.77 5.172 1.828a4 4 0 005.656 0 4 4 0 000-5.656C51.885 42.229 47.888 41 44 41zm40 0c-3.889 0-7.885 1.23-10.828 4.172a4 4 0 000 5.656 4 4 0 005.656 0C79.885 49.771 81.888 49 84 49c2.111 0 4.115.77 5.172 1.828a4 4 0 005.656 0 4 4 0 000-5.656C91.885 42.229 87.888 41 84 41z"/>
    <path fill="#29b6f6" d="M44 48c-2.216 0-4 1.784-4 4v52.14a24 10 0 00-4-.14 24 10 0 00-24 10 24 10 0 0024 10 24 10 0 006.215-.342A24 10 0 0062 128a24 10 0 0020.518-4.814A24 10 0 0092 124a24 10 0 0024-10 24 10 0 00-24-10 24 10 0 00-4 .14V52c0-2.216-1.784-4-4-4s-4 1.784-4 4v53.34a24 10 0 00-8.518 3.474A24 10 0 0062 108a24 10 0 00-6.215.342A24 10 0 0048 105.34V52c0-2.216-1.784-4-4-4z"/>
</svg>
